!!!OTL: 46. Skotshne
!!!Genre:	Skotshne
!!!Mode:	Minor
!!!Listening/dance:	listening
!!!One_Mode:	yes
**kern
*I"P1
*clefG2
*k[b-e-]
*g:
*M2/4
*>A
=1
((8qd/
16gLL)
16aJ)
8b-J
(8qb-/
16aLL)
16g
16f#X
16gJJ
=2
4.g
8fn
=3
16b-LL
16ccJ
8ddJ
(8qdd/
16ccLL)
16b-
16a
16ccJJ
=4
4.b-
8d
=5
16gLL
16aJ
8b-J
(8qb-/
16aLL)
16g
16f#X
16aJJ
=6
4.g
8dd
=7
16ddLL
(16b-
16cc)
(16aJJ
16b-LL)
(16g
16a)
(16f#XJJ
*>A1
=8
4.g)
8d
*>A2
=9:|!
4.g
8dd
*>bM
*B-:
!LO:TX:a:i:t=Bb-major
=10!|:
*>B
(8qgg/
16ffLL)
16ee-
16dd
16ee-JJ
(8qgg/
16ffLL)
16ee-
16dd
16ee-JJ
=11
4ff
4bb-
=12
16bb-LL
16aa
16gg
16ffJJ
16ggLL
16ff
16ee-
16ddJJ
=13
4.ff
8dd
*>eM
*g:
!LO:TX:a:i:t=G-minor
=14
8ddL
8ff#XJ
8ff#L
16ff#L
16ddJJ
=15
(8ddL
8ggJ)
8ggL
8dddJ
=16
16dddLL
(16bb-
16ccc)
(16aaJJ
16bb-LL)
(16gg
16aa)
(16ff#XJJ
=17
4.gg)
8dd
=18:|!|:
*>C
8ddL
8ff#XJ
8ff#L
8ff#J
=19
8.ff#XL
16ee-Jk
(8qgg/
16ff#LL)
16ee-
16dd
16ccJJ
=20
(8ddL
8ggJ)
8ggL
8ggJ
*>C1
=21
4gg
16cccLL
16bb-
16aa
16ggJJ
=22
16aaLL
16bb-JJ
4ccc
8ccc#X
=23
8ccc#X
(8qqeeen/
8dddJ)
4ddd
*>C2
=24:|!
4.gg
(16.ggLL
32bb-JJk)
=25
16dddLL
(16bb-
16ccc)
16aaJJ
16bb-LL
16gg
16aa
16ff#XJJ
=26
2gg
==
*-
